X: 21331
M: 2/4
L: 1/16
K: D
V: 1 name="4"
d2 d4 cd | fedc BABc | d2 d4 cd | e4 a2A2 |\
d2 d4 cd | fedc BABc | dfBd egce | d2d2d2 H|]
z2 |\
K: Dm
d3e f2f2 | e2a2a2A2 | d3e f2f2 | e2A2A2A2 |\
d3e f2f2 | e2a2a2A2 | eadf eg^ce | dDE^F GA=B"^D.C."^c |]


